packages/icons/raw/imported/SportCasino.svg

<svg width="32" height="32" viewBox="0 0 32 32" fill="none" xmlns="http://www.w3.org/2000/svg">
<path d="M13.923 23.3703C13.4153 23.7528 12.7692 23.9919 12.0769 23.9919M15.2155 24.9481C14.3386 25.6175 13.277 26 12.1231 26C9.30772 26 7 23.6572 7 20.6928C7 17.7284 9.30772 15.3855 12.1231 15.3855C13.3232 15.3855 14.4309 15.8158 15.3078 16.533M20.1536 10.1261C19.5074 11.178 19.1844 12.1821 19.092 13.0905C18.8151 15.3377 19.6921 17.1546 19.6921 18.1109M12.3075 17.7762C13.6459 14.3815 16.1383 11.1302 18.5845 10.2695C20.3845 9.64798 22.2768 9.64798 23.6153 9.64798M12.8446 12.2943C10.1753 11.6833 8.12836 9.35952 8.12836 9.35952C8.12836 9.35952 10.8024 6.04961 14.1265 6.00034C16.0193 5.97893 17.7606 6.95956 18.9031 7.83621M25 20.645C25 23.5497 22.727 25.9044 19.923 25.9044C17.1191 25.9044 14.846 23.5497 14.846 20.645C14.846 17.7403 17.1191 15.3855 19.923 15.3855C22.727 15.3855 25 17.7403 25 20.645Z" stroke="black" stroke-miterlimit="10" stroke-linecap="round"/>
</svg>

<svg width="32" height="32" fill="none" xmlns="http://www.w3.org/2000/svg"><path d="M13.923 23.37a3.08 3.08 0 0 1-1.846.622m3.139.956A5.054 5.054 0 0 1 12.123 26C9.308 26 7 23.657 7 20.693c0-2.965 2.308-5.308 5.123-5.308 1.2 0 2.308.43 3.185 1.148m4.846-6.407c-.647 1.052-.97 2.056-1.062 2.965-.277 2.247.6 4.064.6 5.02m-7.385-.335c1.339-3.394 3.831-6.646 6.277-7.506 1.8-.622 3.693-.622 5.031-.622m-10.77 2.646c-2.67-.61-4.717-2.934-4.717-2.934S10.802 6.05 14.126 6c1.893-.021 3.635.96 4.777 1.836M25 20.645c0 2.905-2.273 5.26-5.077 5.26s-5.077-2.355-5.077-5.26 2.273-5.26 5.077-5.26S25 17.74 25 20.645Z" stroke="#000" stroke-miterlimit="10" stroke-linecap="round"/></svg>
